openmetadata-ui/src/main/resources/ui/src/assets/svg/metadata.svg

<svg width="16" height="16" viewBox="0 0 16 16" fill="none" xmlns="http://www.w3.org/2000/svg">
<path d="M2.00019 3.42578L2 12.4662C2.02629 14.1439 4.75469 15.4999 8.11631 15.4999C11.4779 15.4999 14.2061 14.1439 14.2324 12.4662V3.42578C14.2324 5.19836 11.6519 6.59663 8.29028 6.59663C4.92866 6.59663 2.00019 5.33857 2.00019 3.42578Z" stroke="#37352F" stroke-width="0.9"/>
<path fill-rule="evenodd" clip-rule="evenodd" d="M8.11631 6.61631C11.4943 6.61631 14.2326 5.24713 14.2326 3.55816C14.2326 1.86918 11.4943 0.5 8.11631 0.5C4.73837 0.5 2 1.86918 2 3.55816C2 5.24713 4.73837 6.61631 8.11631 6.61631ZM8.14078 5.12393C9.82975 5.12393 11.1989 4.43934 11.1989 3.59485C11.1989 2.75037 9.82975 2.06578 8.14078 2.06578C6.4518 2.06578 5.08262 2.75037 5.08262 3.59485C5.08262 4.43934 6.4518 5.12393 8.14078 5.12393Z" stroke="#37352F" stroke-width="0.9"/>
<path d="M6.15908 11.252V13.3447C6.15908 13.4983 5.99319 13.5945 5.85986 13.5183L4.20478 12.5726C4.14246 12.537 4.104 12.4707 4.104 12.3989V7.68384C4.104 7.5279 4.27454 7.43195 4.40783 7.5129L7.98926 9.68813C8.0524 9.72647 8.13153 9.7269 8.19507 9.68923L11.8755 7.50739C12.0089 7.42836 12.1775 7.52445 12.1775 7.67943V12.4918C12.1775 12.5662 12.1362 12.6345 12.0703 12.669L10.4153 13.536C10.2821 13.6057 10.1225 13.5091 10.1225 13.3588V11.2434C10.1225 11.0902 9.95723 10.9939 9.8239 11.0694L8.19287 11.993C8.1304 12.0283 8.05376 12.0275 7.99206 11.9908L6.46134 11.0801C6.32803 11.0008 6.15908 11.0969 6.15908 11.252Z" stroke="#37352F" stroke-width="0.9"/>
</svg>

<svg xmlns="http://www.w3.org/2000/svg" width="16" height="16" fill="none"><path stroke="#37352F" stroke-width=".9" d="M2 3.426v9.04c.026 1.678 2.755 3.034 6.116 3.034 3.362 0 6.09-1.356 6.116-3.034v-9.04c0 1.772-2.58 3.17-5.942 3.17C4.93 6.597 2 5.34 2 3.427Z"/><path stroke="#37352F" stroke-width=".9" d="M8.116 6.616c3.378 0 6.117-1.369 6.117-3.058C14.233 1.87 11.494.5 8.116.5S2 1.87 2 3.558c0 1.69 2.738 3.058 6.116 3.058Zm.025-1.492c1.689 0 3.058-.685 3.058-1.53 0-.844-1.37-1.528-3.058-1.528-1.69 0-3.058.684-3.058 1.529 0 .844 1.369 1.529 3.058 1.529Z" clip-rule="evenodd"/><path stroke="#37352F" stroke-width=".9" d="M6.16 11.252v2.093a.2.2 0 0 1-.3.173l-1.655-.945a.2.2 0 0 1-.101-.174V7.684a.2.2 0 0 1 .304-.171l3.581 2.175a.2.2 0 0 0 .206.001l3.68-2.182a.2.2 0 0 1 .303.172v4.813a.2.2 0 0 1-.108.177l-1.655.867a.2.2 0 0 1-.292-.177v-2.116a.2.2 0 0 0-.3-.174l-1.63.924a.2.2 0 0 1-.2-.002l-1.532-.91a.2.2 0 0 0-.302.171Z"/></svg>
